resources/haticons/SVG/baffled.svg

<!-- Generated by IcoMoon.io -->
<svg version="1.1" xmlns="http://www.w3.org/2000/svg" width="24" height="24" viewBox="0 0 24 24">
<title>baffled</title>
<path d="M12 24c6.627 0 12-5.373 12-12s-5.373-12-12-12-12 5.373-12 12 5.373 12 12 12zM12 2.25c5.385 0 9.75 4.365 9.75 9.75s-4.365 9.75-9.75 9.75-9.75-4.365-9.75-9.75 4.365-9.75 9.75-9.75z"></path>
<path d="M9 9.75c0 0.414-0.336 0.75-0.75 0.75s-0.75-0.336-0.75-0.75c0-0.414 0.336-0.75 0.75-0.75s0.75 0.336 0.75 0.75z"></path>
<path d="M8.25 7.5c1.243 0 2.25 1.007 2.25 2.25s-1.007 2.25-2.25 2.25-2.25-1.007-2.25-2.25 1.007-2.25 2.25-2.25zM8.25 6c-2.068 0-3.75 1.682-3.75 3.75s1.682 3.75 3.75 3.75 3.75-1.682 3.75-3.75-1.682-3.75-3.75-3.75v0z"></path>
<path d="M16.5 9.75c0 0.414-0.336 0.75-0.75 0.75s-0.75-0.336-0.75-0.75c0-0.414 0.336-0.75 0.75-0.75s0.75 0.336 0.75 0.75z"></path>
<path d="M15.75 7.5c1.243 0 2.25 1.007 2.25 2.25s-1.007 2.25-2.25 2.25-2.25-1.007-2.25-2.25 1.007-2.25 2.25-2.25zM15.75 6c-2.068 0-3.75 1.682-3.75 3.75s1.682 3.75 3.75 3.75 3.75-1.682 3.75-3.75-1.682-3.75-3.75-3.75v0z"></path>
<path d="M9 16.5h6v1.5h-6v-1.5z"></path>
</svg>

<svg xmlns="http://www.w3.org/2000/svg" width="24" height="24"><path d="M12 24c6.627 0 12-5.373 12-12S18.627 0 12 0 0 5.373 0 12s5.373 12 12 12zm0-21.75c5.385 0 9.75 4.365 9.75 9.75s-4.365 9.75-9.75 9.75S2.25 17.385 2.25 12 6.615 2.25 12 2.25z"/><path d="M9 9.75a.75.75 0 1 1-1.5 0 .75.75 0 0 1 1.5 0z"/><path d="M8.25 7.5a2.25 2.25 0 1 1 0 4.5 2.25 2.25 0 0 1 0-4.5zm0-1.5C6.182 6 4.5 7.682 4.5 9.75s1.682 3.75 3.75 3.75S12 11.818 12 9.75 10.318 6 8.25 6zm8.25 3.75a.75.75 0 1 1-1.5 0 .75.75 0 0 1 1.5 0z"/><path d="M15.75 7.5a2.25 2.25 0 1 1 0 4.5 2.25 2.25 0 0 1 0-4.5zm0-1.5C13.682 6 12 7.682 12 9.75s1.682 3.75 3.75 3.75 3.75-1.682 3.75-3.75S17.818 6 15.75 6zM9 16.5h6V18H9v-1.5z"/></svg>
